src/icons/svg/people.svg

<?xml version="1.0" encoding="UTF-8" standalone="no"?>
<svg width="128px" height="128px" viewBox="0 0 128 128" version="1.1" xmlns="http://www.w3.org/2000/svg" xmlns:xlink="http://www.w3.org/1999/xlink">
    <!-- Generator: Sketch 40 (33762) - http://www.bohemiancoding.com/sketch -->
    <title>people</title>
    <desc>Created with Sketch.</desc>
    <defs></defs>
    <g id="Page-1" stroke="none" stroke-width="1" fill="none" fill-rule="evenodd">
        <g id="people" fill="#000000">
            <path d="M104.184806,95.2544627 C112.34608,102.827922 117.330436,112.695467 117.330436,123.534682 C117.330436,125.042447 117.231663,126.531639 117.045358,127.999749 L106.260534,127.999749 C106.498698,126.534651 106.664468,125.051608 106.664468,123.534682 C106.664468,114.552345 102.303775,106.419576 95.2450398,100.318745 C85.9995129,104.661333 75.3551288,107.162353 64,107.162353 C52.6555129,107.162353 42.0196721,104.666604 32.7802904,100.331671 C25.716459,106.430996 21.3355316,114.550337 21.3355316,123.534808 C21.3355316,125.051733 21.5011522,126.534776 21.739466,127.999875 L10.9546417,127.999875 C10.7683372,126.531765 10.6695644,125.042447 10.6695644,123.534808 C10.6695644,112.696722 15.644178,102.822024 23.7973583,95.2435451 C9.29393911,85.420549 0.00344730679,70.4165647 0.00344730679,53.581051 C0.00344730679,23.9890824 28.6558126,0.000125490196 64,0.000125490196 C99.3441874,0.000125490196 127.996553,23.9890824 127.996553,53.5809255 C127.996553,70.4230902 118.698267,85.4318431 104.184806,95.2544627 L104.184806,95.2544627 Z M64,36.8673882 C34.5463607,36.8673882 10.6695644,26.7902745 10.6695644,52.2086902 C10.6695644,77.6268549 34.5463607,98.2320941 64,98.2320941 C93.4536393,98.2320941 117.330436,77.6267294 117.330436,52.2086902 C117.330436,26.7902745 93.4536393,36.8673882 64,36.8673882 L64,36.8673882 Z M88.8876066,62.5111843 C84.9606745,62.5111843 81.7768618,59.8457725 81.7768618,56.5576784 C81.7768618,53.2702118 84.9606745,50.6041725 88.8876066,50.6041725 C92.8148384,50.6041725 95.9983513,53.2700863 95.9983513,56.5576784 C95.9982014,59.8457725 92.8148384,62.5111843 88.8876066,62.5111843 L88.8876066,62.5111843 Z M85.3322342,78.8832627 C85.3322342,82.9935686 75.7813958,86.3250824 64,86.3250824 C52.2186042,86.3250824 42.6677658,82.9934431 42.6677658,78.8832627 C42.6677658,77.823498 43.3236534,76.819451 44.4689087,75.9067608 C47.7633349,78.5328941 55.2573302,80.3715765 64,80.3715765 C72.7426698,80.3715765 80.2366651,78.5328941 83.5310913,75.9067608 C84.6761967,76.819451 85.3322342,77.823498 85.3322342,78.8832627 L85.3322342,78.8832627 Z M39.1123934,62.5111843 C35.1851616,62.5111843 32.0016487,59.8457725 32.0016487,56.5576784 C32.0016487,53.2702118 35.1851616,50.6041725 39.1123934,50.6041725 C43.0393255,50.6041725 46.2231382,53.2700863 46.2231382,56.5576784 C46.2231382,59.8457725 43.0393255,62.5111843 39.1123934,62.5111843 L39.1123934,62.5111843 Z" id="Shape"></path>
        </g>
    </g>
</svg>

<svg width="128" height="128" xmlns="http://www.w3.org/2000/svg"><path d="M104.185 95.254c8.161 7.574 13.145 17.441 13.145 28.28 0 1.508-.098 2.998-.285 4.466h-10.784c.238-1.465.403-2.948.403-4.465 0-8.983-4.36-17.115-11.419-23.216C86 104.66 75.355 107.162 64 107.162c-11.344 0-21.98-2.495-31.22-6.83-7.064 6.099-11.444 14.218-11.444 23.203 0 1.517.165 3 .403 4.465H10.955a35.444 35.444 0 0 1-.285-4.465c0-10.838 4.974-20.713 13.127-28.291C9.294 85.42.003 70.417.003 53.58.003 23.99 28.656.001 64 .001s63.997 23.988 63.997 53.58c0 16.842-9.299 31.85-23.812 41.673zM64 36.867c-29.454 0-53.33-10.077-53.33 15.342 0 25.418 23.876 46.023 53.33 46.023 29.454 0 53.33-20.605 53.33-46.023 0-25.419-23.876-15.342-53.33-15.342zm24.888 25.644c-3.927 0-7.111-2.665-7.111-5.953 0-3.288 3.184-5.954 7.11-5.954 3.928 0 7.111 2.666 7.111 5.954s-3.183 5.953-7.11 5.953zm-3.556 16.372c0 4.11-9.55 7.442-21.332 7.442-11.781 0-21.332-3.332-21.332-7.442 0-1.06.656-2.064 1.8-2.976 3.295 2.626 10.79 4.465 19.532 4.465 8.743 0 16.237-1.84 19.531-4.465 1.145.912 1.801 1.916 1.801 2.976zm-46.22-16.372c-3.927 0-7.11-2.665-7.11-5.953 0-3.288 3.183-5.954 7.11-5.954 3.927 0 7.111 2.666 7.111 5.954s-3.184 5.953-7.11 5.953z" fill-rule="evenodd"/></svg>
